TV/Source/Ideal Extra - Dark.svg

<svg height="9.248423mm" viewBox="0 0 31.898749 32.770001" width="9.002536mm" xmlns="http://www.w3.org/2000/svg" xmlns:xlink="http://www.w3.org/1999/xlink"><clipPath id="a"><path d="m0 0h419.528v595.275h-419.528z"/></clipPath><g transform="translate(-349.76491 -341.69149)"><g clip-path="url(#a)" fill="#13923b" transform="matrix(1.25 0 0 -1.25 -108.37447 796.91812)"><g transform="translate(368.4578 354.17)"><path d="m0 0c0 .237.053.405.157.514.107.107.273.159.503.159.232 0 .397-.052.498-.157.098-.107.152-.274.152-.516s-.054-.414-.152-.518c-.101-.104-.266-.156-.498-.156-.23 0-.396.052-.503.161-.104.11-.157.277-.157.513m.01-4.84v2.398c0 .204-.02.34-.056.397-.035.061-.112.095-.23.102l-.221.018c-.103.008-.153.063-.153.157.002.082.014.127.029.144.012.015.057.025.124.025h.326c.227 0 .442.002.646.01.2.002.392.015.579.024l.175.021h.031c.039 0 .067-.005.077-.022.016-.018.024-.047.024-.092 0-.007-.002-.042-.009-.092-.027-.397-.042-.828-.042-1.281v-1.758c0-.25.022-.399.059-.456.043-.06.115-.092.226-.101l.202-.026c.015-.002.036-.003.06-.006.074-.007.113-.054.113-.144 0-.083-.01-.134-.032-.156-.018-.018-.067-.029-.141-.029-.013 0-.058.002-.126.004-.356.025-.716.039-1.076.039-.289 0-.594-.014-.913-.032-.084-.009-.137-.011-.159-.011-.069 0-.12.011-.139.029-.022.022-.034.073-.034.156 0 .09.038.137.113.144.022.003.043.004.06.006l.197.026c.116.01.195.049.23.11.04.058.06.192.06.396" fill="#13923b"/></g><g transform="translate(372.7264 350.479)"><path d="m0 0c0-.678.068-1.13.192-1.35.121-.221.347-.332.671-.332.303 0 .528.121.664.357.138.236.209.625.209 1.157 0 .824-.062 1.356-.186 1.592-.125.234-.351.349-.687.349-.32 0-.545-.116-.67-.35-.125-.237-.193-.71-.193-1.423m1.78-1.575c-.172-.185-.368-.321-.589-.408-.219-.087-.478-.13-.777-.13-.61 0-1.062.174-1.356.531-.295.352-.444.892-.444 1.618 0 .741.154 1.291.456 1.645.309.351.784.529 1.43.529.287 0 .523-.034.715-.105.19-.07.363-.181.521-.337v1.915c0 .212-.019.346-.056.398-.041.051-.115.079-.222.09l-.228.007c-.07.003-.117.011-.127.028-.017.015-.023.064-.026.142 0 .068.007.113.026.131.015.012.061.026.136.026h.326c.178 0 .362.002.56.007.199.008.415.022.653.042l.182.009h.038c.038 0 .065-.009.075-.024.016-.017.024-.049.024-.094 0-.01-.004-.053-.01-.121-.026-.403-.043-.82-.043-1.245v-4.229c0-.229.02-.37.059-.419.041-.05.109-.078.217-.084l.231-.018c.101-.006.154-.058.154-.158-.002-.08-.015-.127-.031-.141-.016-.017-.058-.026-.123-.026h-.244c-.23 0-.442-.001-.641-.009-.2-.008-.392-.015-.581-.027l-.177-.008h-.041c-.033 0-.053.006-.067.014-.012.012-.02.033-.02.063z" fill="#13923b"/></g><g transform="translate(378.6193 350.8255)"><path d="m0 0h1.417v.5c0 .36-.055.616-.167.774-.111.157-.293.235-.54.235-.259 0-.44-.076-.55-.226-.107-.15-.16-.403-.16-.761zm0-.363c-.003-.045-.006-.09-.007-.137-.002-.051-.003-.116-.003-.207 0-.512.066-.872.199-1.083.132-.212.355-.316.668-.316.222 0 .399.052.539.163.143.107.24.269.307.492.011.028.021.062.029.107.036.148.12.226.252.226h.326c.083 0 .137-.014.164-.04.025-.022.035-.085.035-.178 0-.371-.152-.655-.463-.842-.309-.189-.772-.282-1.387-.282-.733 0-1.257.164-1.58.485-.315.323-.473.857-.473 1.593 0 .808.161 1.383.492 1.726.331.344.884.519 1.659.519.695 0 1.188-.15 1.482-.454.291-.298.441-.808.441-1.536 0-.094-.013-.163-.042-.192-.023-.028-.075-.044-.157-.044z" fill="#13923b"/></g><g transform="translate(384.9991 350.4933)"><path d="m0 0h-.479c-.269 0-.472-.075-.611-.214-.139-.144-.209-.359-.209-.644 0-.243.049-.424.151-.545.098-.122.246-.182.443-.182.24 0 .416.063.533.192.116.13.172.33.172.603zm.057-1.648c-.236-.166-.467-.285-.693-.364-.227-.077-.465-.116-.71-.116-.433 0-.756.102-.984.309-.224.208-.338.505-.338.897 0 .429.138.743.416.946.277.201.709.299 1.301.299h.951v.919c0 .217-.052.373-.155.471-.102.099-.272.147-.503.147-.214 0-.365-.046-.455-.144-.093-.094-.146-.268-.165-.519-.011-.152-.054-.25-.125-.293-.068-.044-.195-.068-.381-.068-.181 0-.308.024-.386.07-.075.049-.113.128-.113.239 0 .352.144.614.442.789.292.175.729.262 1.315.262.663 0 1.132-.107 1.41-.323.281-.211.419-.57.419-1.083v-1.927c0-.229.018-.372.05-.432.038-.059.113-.089.22-.098l.235-.018c.101-.007.153-.06.153-.165 0-.07-.008-.114-.026-.135-.016-.025-.049-.035-.099-.035h-.037l-.236.01h-.433c-.217 0-.432-.007-.636-.023-.036-.001-.057-.003-.063-.003l-.167-.017h-.025c-.027 0-.048.004-.061.012-.012.013-.025.036-.036.071z" fill="#13923b"/></g><g transform="translate(388.3223 349.3275)"><path d="m0 0v4.817c0 .216-.02.347-.056.404-.036.056-.116.089-.232.101l-.219.008c-.07.002-.11.012-.127.026-.014.015-.025.064-.029.142.004.073.015.119.028.135.014.011.057.024.128.024h.324c.183 0 .375.003.575.006.198.009.419.022.652.043l.171.008h.037c.037 0 .063-.008.076-.024s.02-.048.02-.094c0-.006-.003-.033-.012-.09-.022-.399-.035-.826-.035-1.279v-4.227c0-.203.018-.335.056-.393.039-.062.118-.1.23-.111l.201-.025c.014-.003.033-.004.061-.006.072-.008.11-.055.11-.145 0-.082-.011-.134-.031-.156-.021-.017-.067-.029-.14-.029-.016 0-.06.002-.126.005-.358.024-.717.039-1.078.039-.289 0-.593-.015-.914-.032-.08-.01-.134-.012-.157-.012-.07 0-.118.012-.142.029-.02.022-.034.074-.034.156 0 .09.039.137.113.145.024.002.047.003.063.006l.199.025c.114.011.189.046.229.104.039.059.059.19.059.4" fill="#13923b"/></g></g><path d="m381.66366 353.25899h-.009v-.145l.006-.1625-.0188-.13125-.0312-.11625-.0337-.0737-.0788-.1275-.0775-.0987-.0687-.0525-.10375-.0813-.006.004-14.76125-10.34125-.19625-.125-.18875-.0788-.2025-.0375-.1825.01-.17375.0375-.195.095-.13125.085-.465.31875-14.98125 10.46625.92875.9575 15.14125-10.3625 14.50375 9.97625v.015l-.001.005h.001v19.92375h.0625-.0663v.007h-29.07625.001v-9.19625h27.58875v-1.3375h-27.61375-.59l-.16.0325-.18875.0763-.15375.13125-.11.16125-.0675.14875-.0325.1975-.007.21.001.355v9.22125l-.001.1525v.15125l.001.1875.0238.1675.0863.18625.12625.1575.1475.11125.135.0625.14625.045.19875.0138h29.5525v-.009h.44875l.1875-.005.15375-.0337.1375-.0675.10625-.0838.09-.08.0675-.115.0725-.13.0312-.17625v-.21375l-.001-.1875-.001-.105.006.007.0225-20.00375z" fill="#ef373e"/><g fill="#1a5bd3" transform="matrix(.11126279 0 0 .11126279 351.36789 365.27829)"><path d="m46.79 6.5h15.66l11.4596 14.49 11.4704-14.49h15.88l-17.94 20.44 18.87 20.8496h-16.35l-11.9304-14.7992-12.4056 14.7992h-16.234l19.06-20.8496z"/><path d="m2.7504 6.5h41.7592v9.84h-30.2196l.1 5.9496h28.3996v9.06h-28.4496l-.01 6.38h30.1796v10.06h-41.7592z"/><path d="m101.76 6.5h45.6v10.7304h-16.7896v30.5592h-11.9904v-30.5592h-16.82z"/><path d="m149.8 6.61 38.16-.11c3.75531-.010825 7.38453 2.5910799 8.12 6.3.89453 4.511087.86093 9.228464.1 13.75-.44908 2.668488-2.84 4.12-5.03 5.25 1.9.95 4.22896 1.794277 4.68 4.24.71054 3.852847.49 8.27913.49 11.7496h-12v-8.7096c0-1.279453-1.80709-1.6496-3.2-1.6496h-19.7296v10.3592h-11.6304l.04-41.2896m11.5904 20.32h22.9296c3.18284 0 3.17515-10.08 0-10.08h-22.9296z"/><path d="m197.11 47.75 19.66-41.25h18.11l19.37 41.2896h-13.28l-3.25-7.0896h-24.22l-3.33 7.0896h-13.06m27.54-31.5496-7.35 15.3504h16.67l-7.28-15.3504c-.29138-.614406-1.74633-.613319-2.04 0z"/></g></g></svg>

<?xml version="1.0" encoding="UTF-8" standalone="no"?>
<!-- Created with Inkscape (http://www.inkscape.org/) -->

<svg
   xmlns:dc="http://purl.org/dc/elements/1.1/"
   xmlns:cc="http://creativecommons.org/ns#"
   xmlns:rdf="http://www.w3.org/1999/02/22-rdf-syntax-ns#"
   xmlns:svg="http://www.w3.org/2000/svg"
   xmlns="http://www.w3.org/2000/svg"
   xmlns:sodipodi="http://sodipodi.sourceforge.net/DTD/sodipodi-0.dtd"
   xmlns:inkscape="http://www.inkscape.org/namespaces/inkscape"
   width="9.0025358mm"
   height="9.2484226mm"
   viewBox="0 0 31.898749 32.770001"
   id="svg11850"
   version="1.1"
   inkscape:version="0.91 r13725"
   sodipodi:docname="Ideal Extra - Dark.svg">
  <defs
     id="defs11852">
    <clipPath
       clipPathUnits="userSpaceOnUse"
       id="clipPath1594">
      <path
         d="m 0,0 419.528,0 0,595.275 L 0,595.275 0,0 Z"
         id="path1596"
         inkscape:connector-curvature="0" />
    </clipPath>
    <clipPath
       clipPathUnits="userSpaceOnUse"
       id="clipPath1574">
      <path
         d="m 0,0 419.528,0 0,595.275 L 0,595.275 0,0 Z"
         id="path1576"
         inkscape:connector-curvature="0" />
    </clipPath>
    <clipPath
       clipPathUnits="userSpaceOnUse"
       id="clipPath1542">
      <path
         d="m 0,0 419.528,0 0,595.275 L 0,595.275 0,0 Z"
         id="path1544"
         inkscape:connector-curvature="0" />
    </clipPath>
  </defs>
  <sodipodi:namedview
     id="base"
     pagecolor="#ffffff"
     bordercolor="#666666"
     borderopacity="1.0"
     inkscape:pageopacity="0.0"
     inkscape:pageshadow="2"
     inkscape:zoom="15.839192"
     inkscape:cx="19.942395"
     inkscape:cy="10.84774"
     inkscape:document-units="px"
     inkscape:current-layer="layer1"
     showgrid="false"
     fit-margin-top="0"
     fit-margin-left="0"
     fit-margin-right="0"
     fit-margin-bottom="0"
     inkscape:window-width="1920"
     inkscape:window-height="1017"
     inkscape:window-x="-8"
     inkscape:window-y="-8"
     inkscape:window-maximized="1" />
  <metadata
     id="metadata11855">
    <rdf:RDF>
      <cc:Work
         rdf:about="">
        <dc:format>image/svg+xml</dc:format>
        <dc:type
           rdf:resource="http://purl.org/dc/dcmitype/StillImage" />
        <dc:title></dc:title>
      </cc:Work>
    </rdf:RDF>
  </metadata>
  <g
     inkscape:label="Layer 1"
     inkscape:groupmode="layer"
     id="layer1"
     transform="translate(-349.76491,-341.69149)">
    <g
       transform="matrix(1.25,0,0,-1.25,-108.37447,796.91812)"
       id="g1538"
       style="fill:#13923b;fill-opacity:1">
      <g
         id="g1540"
         clip-path="url(#clipPath1542)"
         style="fill:#13923b;fill-opacity:1">
        <g
           id="g1546"
           transform="translate(368.4578,354.17)"
           style="fill:#13923b;fill-opacity:1">
          <path
             d="M 0,0 C 0,0.237 0.053,0.405 0.157,0.514 0.264,0.621 0.43,0.673 0.66,0.673 0.892,0.673 1.057,0.621 1.158,0.516 1.256,0.409 1.31,0.242 1.31,0 1.31,-0.242 1.256,-0.414 1.158,-0.518 1.057,-0.622 0.892,-0.674 0.66,-0.674 0.43,-0.674 0.264,-0.622 0.157,-0.513 0.053,-0.403 0,-0.236 0,0 m 0.01,-4.84 0,2.398 c 0,0.204 -0.02,0.34 -0.056,0.397 -0.035,0.061 -0.112,0.095 -0.23,0.102 l -0.221,0.018 c -0.103,0.008 -0.153,0.063 -0.153,0.157 0.002,0.082 0.014,0.127 0.029,0.144 0.012,0.015 0.057,0.025 0.124,0.025 l 0.326,0 c 0.227,0 0.442,0.002 0.646,0.01 0.2,0.002 0.392,0.015 0.579,0.024 l 0.175,0.021 0.031,0 c 0.039,0 0.067,-0.005 0.077,-0.022 C 1.353,-1.584 1.361,-1.613 1.361,-1.658 1.361,-1.665 1.359,-1.7 1.352,-1.75 1.325,-2.147 1.31,-2.578 1.31,-3.031 l 0,-1.758 c 0,-0.25 0.022,-0.399 0.059,-0.456 0.043,-0.06 0.115,-0.092 0.226,-0.101 L 1.797,-5.372 C 1.812,-5.374 1.833,-5.375 1.857,-5.378 1.931,-5.385 1.97,-5.432 1.97,-5.522 1.97,-5.605 1.96,-5.656 1.938,-5.678 1.92,-5.696 1.871,-5.707 1.797,-5.707 c -0.013,0 -0.058,0.002 -0.126,0.004 -0.356,0.025 -0.716,0.039 -1.076,0.039 -0.289,0 -0.594,-0.014 -0.913,-0.032 -0.084,-0.009 -0.137,-0.011 -0.159,-0.011 -0.069,0 -0.12,0.011 -0.139,0.029 -0.022,0.022 -0.034,0.073 -0.034,0.156 0,0.09 0.038,0.137 0.113,0.144 0.022,0.003 0.043,0.004 0.06,0.006 l 0.197,0.026 c 0.116,0.01 0.195,0.049 0.23,0.11 0.04,0.058 0.06,0.192 0.06,0.396"
             style="fill:#13923b;fill-opacity:1;fill-rule:nonzero;stroke:none"
             id="path1548"
             inkscape:connector-curvature="0" />
        </g>
        <g
           id="g1550"
           transform="translate(372.7264,350.479)"
           style="fill:#13923b;fill-opacity:1">
          <path
             d="m 0,0 c 0,-0.678 0.068,-1.13 0.192,-1.35 0.121,-0.221 0.347,-0.332 0.671,-0.332 0.303,0 0.528,0.121 0.664,0.357 0.138,0.236 0.209,0.625 0.209,1.157 0,0.824 -0.062,1.356 -0.186,1.592 C 1.425,1.658 1.199,1.773 0.863,1.773 0.543,1.773 0.318,1.657 0.193,1.423 0.068,1.186 0,0.713 0,0 M 1.78,-1.575 C 1.608,-1.76 1.412,-1.896 1.191,-1.983 0.972,-2.07 0.713,-2.113 0.414,-2.113 c -0.61,0 -1.062,0.174 -1.356,0.531 -0.295,0.352 -0.444,0.892 -0.444,1.618 0,0.741 0.154,1.291 0.456,1.645 0.309,0.351 0.784,0.529 1.43,0.529 0.287,0 0.523,-0.034 0.715,-0.105 0.19,-0.07 0.363,-0.181 0.521,-0.337 l 0,1.915 C 1.736,3.895 1.717,4.029 1.68,4.081 1.639,4.132 1.565,4.16 1.458,4.171 L 1.23,4.178 C 1.16,4.181 1.113,4.189 1.103,4.206 1.086,4.221 1.08,4.27 1.077,4.348 c 0,0.068 0.007,0.113 0.026,0.131 0.015,0.012 0.061,0.026 0.136,0.026 l 0.326,0 c 0.178,0 0.362,0.002 0.56,0.007 0.199,0.008 0.415,0.022 0.653,0.042 l 0.182,0.009 0.038,0 C 3.036,4.563 3.063,4.554 3.073,4.539 3.089,4.522 3.097,4.49 3.097,4.445 3.097,4.435 3.093,4.392 3.087,4.324 3.061,3.921 3.044,3.504 3.044,3.079 l 0,-4.229 c 0,-0.229 0.02,-0.37 0.059,-0.419 0.041,-0.05 0.109,-0.078 0.217,-0.084 L 3.551,-1.671 C 3.652,-1.677 3.705,-1.729 3.705,-1.829 3.703,-1.909 3.69,-1.956 3.674,-1.97 3.658,-1.987 3.616,-1.996 3.551,-1.996 l -0.244,0 c -0.23,0 -0.442,-0.001 -0.641,-0.009 -0.2,-0.008 -0.392,-0.015 -0.581,-0.027 l -0.177,-0.008 -0.041,0 c -0.033,0 -0.053,0.006 -0.067,0.014 -0.012,0.012 -0.02,0.033 -0.02,0.063 l 0,0.388 z"
             style="fill:#13923b;fill-opacity:1;fill-rule:nonzero;stroke:none"
             id="path1552"
             inkscape:connector-curvature="0" />
        </g>
        <g
           id="g1554"
           transform="translate(378.6193,350.8255)"
           style="fill:#13923b;fill-opacity:1">
          <path
             d="m 0,0 1.417,0 0,0.5 C 1.417,0.86 1.362,1.116 1.25,1.274 1.139,1.431 0.957,1.509 0.71,1.509 0.451,1.509 0.27,1.433 0.16,1.283 0.053,1.133 0,0.88 0,0.522 L 0,0 Z M 0,-0.363 C -0.003,-0.408 -0.006,-0.453 -0.007,-0.5 -0.009,-0.551 -0.01,-0.616 -0.01,-0.707 c 0,-0.512 0.066,-0.872 0.199,-1.083 0.132,-0.212 0.355,-0.316 0.668,-0.316 0.222,0 0.399,0.052 0.539,0.163 0.143,0.107 0.24,0.269 0.307,0.492 0.011,0.028 0.021,0.062 0.029,0.107 0.036,0.148 0.12,0.226 0.252,0.226 l 0.326,0 c 0.083,0 0.137,-0.014 0.164,-0.04 0.025,-0.022 0.035,-0.085 0.035,-0.178 0,-0.371 -0.152,-0.655 -0.463,-0.842 C 1.737,-2.367 1.274,-2.46 0.659,-2.46 c -0.733,0 -1.257,0.164 -1.58,0.485 -0.315,0.323 -0.473,0.857 -0.473,1.593 0,0.808 0.161,1.383 0.492,1.726 0.331,0.344 0.884,0.519 1.659,0.519 0.695,0 1.188,-0.15 1.482,-0.454 C 2.53,1.111 2.68,0.601 2.68,-0.127 2.68,-0.221 2.667,-0.29 2.638,-0.319 2.615,-0.347 2.563,-0.363 2.481,-0.363 l -2.481,0 z"
             style="fill:#13923b;fill-opacity:1;fill-rule:nonzero;stroke:none"
             id="path1556"
             inkscape:connector-curvature="0" />
        </g>
        <g
           id="g1558"
           transform="translate(384.9991,350.4933)"
           style="fill:#13923b;fill-opacity:1">
          <path
             d="m 0,0 -0.479,0 c -0.269,0 -0.472,-0.075 -0.611,-0.214 -0.139,-0.144 -0.209,-0.359 -0.209,-0.644 0,-0.243 0.049,-0.424 0.151,-0.545 0.098,-0.122 0.246,-0.182 0.443,-0.182 0.24,0 0.416,0.063 0.533,0.192 C -0.056,-1.263 0,-1.063 0,-0.79 L 0,0 Z m 0.057,-1.648 c -0.236,-0.166 -0.467,-0.285 -0.693,-0.364 -0.227,-0.077 -0.465,-0.116 -0.71,-0.116 -0.433,0 -0.756,0.102 -0.984,0.309 -0.224,0.208 -0.338,0.505 -0.338,0.897 0,0.429 0.138,0.743 0.416,0.946 0.277,0.201 0.709,0.299 1.301,0.299 L 0,0.323 0,1.242 C 0,1.459 -0.052,1.615 -0.155,1.713 -0.257,1.812 -0.427,1.86 -0.658,1.86 -0.872,1.86 -1.023,1.814 -1.113,1.716 -1.206,1.622 -1.259,1.448 -1.278,1.197 -1.289,1.045 -1.332,0.947 -1.403,0.904 -1.471,0.86 -1.598,0.836 -1.784,0.836 c -0.181,0 -0.308,0.024 -0.386,0.07 -0.075,0.049 -0.113,0.128 -0.113,0.239 0,0.352 0.144,0.614 0.442,0.789 0.292,0.175 0.729,0.262 1.315,0.262 0.663,0 1.132,-0.107 1.41,-0.323 C 1.165,1.662 1.303,1.303 1.303,0.79 l 0,-1.927 c 0,-0.229 0.018,-0.372 0.05,-0.432 0.038,-0.059 0.113,-0.089 0.22,-0.098 L 1.808,-1.685 C 1.909,-1.692 1.961,-1.745 1.961,-1.85 1.961,-1.92 1.953,-1.964 1.935,-1.985 1.919,-2.01 1.886,-2.02 1.836,-2.02 l -0.037,0 -0.236,0.01 -0.433,0 C 0.913,-2.01 0.698,-2.017 0.494,-2.033 0.458,-2.034 0.437,-2.036 0.431,-2.036 l -0.167,-0.017 -0.025,0 c -0.027,0 -0.048,0.004 -0.061,0.012 -0.012,0.013 -0.025,0.036 -0.036,0.071 l -0.085,0.322 z"
             style="fill:#13923b;fill-opacity:1;fill-rule:nonzero;stroke:none"
             id="path1560"
             inkscape:connector-curvature="0" />
        </g>
        <g
           id="g1562"
           transform="translate(388.3223,349.3275)"
           style="fill:#13923b;fill-opacity:1">
          <path
             d="M 0,0 0,4.817 C 0,5.033 -0.02,5.164 -0.056,5.221 -0.092,5.277 -0.172,5.31 -0.288,5.322 L -0.507,5.33 c -0.07,0.002 -0.11,0.012 -0.127,0.026 -0.014,0.015 -0.025,0.064 -0.029,0.142 0.004,0.073 0.015,0.119 0.028,0.135 0.014,0.011 0.057,0.024 0.128,0.024 l 0.324,0 C 0,5.657 0.192,5.66 0.392,5.663 0.59,5.672 0.811,5.685 1.044,5.706 l 0.171,0.008 0.037,0 C 1.289,5.714 1.315,5.706 1.328,5.69 1.341,5.674 1.348,5.642 1.348,5.596 1.348,5.59 1.345,5.563 1.336,5.506 1.314,5.107 1.301,4.68 1.301,4.227 L 1.301,0 c 0,-0.203 0.018,-0.335 0.056,-0.393 0.039,-0.062 0.118,-0.1 0.23,-0.111 l 0.201,-0.025 c 0.014,-0.003 0.033,-0.004 0.061,-0.006 0.072,-0.008 0.11,-0.055 0.11,-0.145 0,-0.082 -0.011,-0.134 -0.031,-0.156 -0.021,-0.017 -0.067,-0.029 -0.14,-0.029 -0.016,0 -0.06,0.002 -0.126,0.005 -0.358,0.024 -0.717,0.039 -1.078,0.039 -0.289,0 -0.593,-0.015 -0.914,-0.032 -0.08,-0.01 -0.134,-0.012 -0.157,-0.012 -0.07,0 -0.118,0.012 -0.142,0.029 -0.02,0.022 -0.034,0.074 -0.034,0.156 0,0.09 0.039,0.137 0.113,0.145 0.024,0.002 0.047,0.003 0.063,0.006 l 0.199,0.025 c 0.114,0.011 0.189,0.046 0.229,0.104 C -0.02,-0.341 0,-0.21 0,0"
             style="fill:#13923b;fill-opacity:1;fill-rule:nonzero;stroke:none"
             id="path1564"
             inkscape:connector-curvature="0" />
        </g>
      </g>
    </g>
    <path
       inkscape:connector-curvature="0"
       id="path1604"
       style="fill:#ef373e;fill-opacity:1;fill-rule:nonzero;stroke:none"
       d="m 381.66366,353.25899 -0.009,0 0,-0.145 0.006,-0.1625 -0.0188,-0.13125 -0.0312,-0.11625 -0.0337,-0.0737 -0.0788,-0.1275 -0.0775,-0.0987 -0.0687,-0.0525 -0.10375,-0.0813 -0.006,0.004 -14.76125,-10.34125 -0.19625,-0.125 -0.18875,-0.0788 -0.2025,-0.0375 -0.1825,0.01 -0.17375,0.0375 -0.195,0.095 -0.13125,0.085 -0.465,0.31875 -14.98125,10.46625 0.92875,0.9575 15.14125,-10.3625 14.50375,9.97625 0,0.015 -0.001,0.005 0.001,0 0,19.92375 0.0625,0 -0.0663,0 0,0.007 -29.07625,0 0.001,0 0,-9.19625 27.58875,0 0,-1.3375 -27.61375,0 -0.59,0 -0.16,0.0325 -0.18875,0.0763 -0.15375,0.13125 -0.11,0.16125 -0.0675,0.14875 -0.0325,0.1975 -0.007,0.21 0.001,0.355 0,9.22125 -0.001,0.1525 0,0.15125 0.001,0.1875 0.0238,0.1675 0.0863,0.18625 0.12625,0.1575 0.1475,0.11125 0.135,0.0625 0.14625,0.045 0.19875,0.0138 29.5525,0 0,-0.009 0.44875,0 0.1875,-0.005 0.15375,-0.0337 0.1375,-0.0675 0.10625,-0.0838 0.09,-0.08 0.0675,-0.115 0.0725,-0.13 0.0312,-0.17625 0,-0.21375 -0.001,-0.1875 -0.001,-0.105 0.006,0.007 0.0225,-20.00375 z" />
    <g
       id="#1a5ad2ff"
       transform="matrix(0.11126279,0,0,0.11126279,351.36789,365.27829)"
       style="fill:#1a5bd3;fill-opacity:1">
      <path
         d="M 46.79,6.5 62.45,6.5 73.9096,20.99 85.38,6.5 l 15.88,0 -17.94,20.44 18.87,20.8496 -16.35,0 L 73.9096,32.9904 61.504,47.7896 45.27,47.7896 64.33,26.94 Z"
         id="path12"
         inkscape:connector-curvature="0"
         style="opacity:1;fill:#1a5bd3;fill-opacity:1"
         sodipodi:nodetypes="ccccccccccccc" />
      <path
         d="m 2.7504,6.5 41.7592,0 0,9.84 -30.2196,0 0.1,5.9496 28.3996,0 0,9.06 -28.4496,0 -0.01,6.38 30.1796,0 0,10.06 -41.7592,0 z"
         id="path14"
         inkscape:connector-curvature="0"
         style="opacity:1;fill:#1a5bd3;fill-opacity:1"
         sodipodi:nodetypes="ccccccccccccc" />
      <path
         d="m 101.76,6.5 45.6,0 0,10.7304 -16.7896,0 0,30.5592 -11.9904,0 0,-30.5592 -16.82,0 z"
         id="path16"
         inkscape:connector-curvature="0"
         style="opacity:1;fill:#1a5bd3;fill-opacity:1"
         sodipodi:nodetypes="ccccccccc" />
      <path
         d="M 149.8,6.61 187.96,6.5 c 3.75531,-0.010825 7.38453,2.5910799 8.12,6.3 0.89453,4.511087 0.86093,9.228464 0.1,13.75 -0.44908,2.668488 -2.84,4.12 -5.03,5.25 1.9,0.95 4.22896,1.794277 4.68,4.24 0.71054,3.852847 0.49,8.27913 0.49,11.7496 l -12,0 0,-8.7096 c 0,-1.279453 -1.80709,-1.6496 -3.2,-1.6496 l -19.7296,0 0,10.3592 -11.6304,0 L 149.8,6.5 m 11.5904,20.32 22.9296,0 c 3.18284,0 3.17515,-10.08 0,-10.08 l -22.9296,0 z"
         id="path18"
         inkscape:connector-curvature="0"
         style="opacity:1;fill:#1a5bd3;fill-opacity:1"
         sodipodi:nodetypes="cssscsccsscccccsscc" />
      <path
         d="m 197.11,47.75 19.66,-41.25 18.11,0 19.37,41.2896 -13.28,0 -3.25,-7.0896 -24.22,0 -3.33,7.0896 -13.06,0 m 27.54,-31.5496 -7.35,15.3504 16.67,0 -7.28,-15.3504 c -0.29138,-0.614406 -1.74633,-0.613319 -2.04,0 z"
         id="path20"
         inkscape:connector-curvature="0"
         style="opacity:1;fill:#1a5bd3;fill-opacity:1"
         sodipodi:nodetypes="cccccccccsccss" />
    </g>
  </g>
</svg>
